X: 80
T:Coltishall Slow Hornpipe. GHW.080
M:4/4
L:1/8
Q:140
S:George H.Watson,MS,Swanton Abbott,Norfolk,1850-1880
R:Hornpipe
O:England
A:Norfolk
N:Named by me after presumed home village of GHW..CGP.
Z:vmp.Taz Tarry
K:G
(3DEF)|G>BD>G (3B,DG) B>d|d>gb>a g>fe>d|(3gag) f>e d>cc>B|(3aba)(3g
fe) (3ded) (3cBA)|!
G>BD>G (3B,DG) B>d|d>gb>a g>fe>d|(3aba)(3gfe) (3ded) (3cBA)|G2g2G2:
|!
|:F>G|(3AcB) (3AGF) G>Bd>B|g>dB>G F>AF>D|(3dcd) e>c d>ef>g|(3fed) (3e
dc) d2 e>f|!
g>a f>g e>f d>e|c>d B>c A>B G>A| Ffee d>cc>F|G2B2G2:|
W:Untitled in MS |
% Output from ABC2Win  Version 2.1 k pre2 on 18/07/2000
T:Coltishall Slow Hornpipe,aka. GHW.080
M:4/4
L:1/8
Q:140
C:Untitled in MS
S:George H.Watson,MS,Swanton Abbott,Norfolk,1850-1880
R:Hornpipe
O:England
A:Norfolk
N:Named by me after presumed home village of GHW..CGP.
Z:vmp.Taz Tarry
K:G
(3DEF)|G>BD>G (3B,DG) B>d|d>gb>a g>fe>d|\
(3gag) f>e d>cc>B|(3aba)(3gfe) (3ded) (3cBA)|!
G>BD>G (3B,DG) B>d|d>gb>a g>fe>d|\
(3aba)(3gfe) (3ded) (3cBA)|G2g2G2:|!
|:F>G|(3AcB) (3AGF) G>Bd>B|g>dB>G F>AF>D|\
(3dcd) e>c d>ef>g|(3fed) (3edc) d2 e>f|!
g>a f>g e>f d>e|c>d B>c A>B G>A| Ffee d>cc>F|G2B2G2:||
% Output from ABC2Win  Version 2.1 k pre2 on 05/10/2003
